antibot/app/images/dist/why/why-icon6.svg

<svg width="40" height="37" viewBox="0 0 40 37" fill="none" xmlns="http://www.w3.org/2000/svg">
<path d="M5.5625 26.832C7.02503 29.3666 9.12934 31.4712 11.6637 32.9341C14.198 34.397 17.0729 35.1666 19.9992 35.1654C22.9254 35.1666 25.8003 34.397 28.3347 32.9341C30.869 31.4712 32.9733 29.3666 34.4358 26.832M5.5625 10.1654C7.02503 7.63083 9.12934 5.52622 11.6637 4.06332C14.198 2.60042 17.0729 1.83085 19.9992 1.83203C22.9254 1.83085 25.8003 2.60042 28.3347 4.06332C30.869 5.52622 32.9733 7.63083 34.4358 10.1654" stroke="#29B74D" stroke-width="2.5" stroke-linecap="round" stroke-linejoin="round"/>
<path d="M21.666 35.0807C21.666 35.0807 24.0127 31.9924 25.491 26.8307M21.666 1.91406C21.666 1.91406 24.0127 5.00073 25.491 10.1641M18.3327 35.0807C18.3327 35.0807 15.986 31.9941 14.5077 26.8307M18.3327 1.91406C18.3327 1.91406 15.986 5.00073 14.5077 10.1641M14.9993 15.1641L17.4993 23.4974L19.9993 15.1641L22.4993 23.4974L24.9993 15.1641M1.66602 15.1641L4.16602 23.4974L6.66602 15.1641L9.16601 23.4974L11.666 15.1641M28.3327 15.1641L30.8327 23.4974L33.3327 15.1641L35.8327 23.4974L38.3327 15.1641" stroke="#29B74D" stroke-width="2.5" stroke-linecap="round" stroke-linejoin="round"/>
</svg>

<svg width="40" height="37" fill="none" xmlns="http://www.w3.org/2000/svg"><path d="M5.563 26.832a16.66 16.66 0 0 0 14.436 8.333 16.66 16.66 0 0 0 14.437-8.333M5.563 10.165a16.66 16.66 0 0 1 14.436-8.333 16.66 16.66 0 0 1 14.437 8.333" stroke="#29B74D" stroke-width="2.5" stroke-linecap="round" stroke-linejoin="round"/><path d="M21.666 35.08s2.347-3.088 3.825-8.25M21.666 1.915s2.347 3.087 3.825 8.25m-7.158 24.917s-2.347-3.087-3.825-8.25m3.825-24.917s-2.347 3.087-3.825 8.25m.491 5 2.5 8.333 2.5-8.333 2.5 8.333 2.5-8.333m-23.333 0 2.5 8.333 2.5-8.333 2.5 8.333 2.5-8.333m16.667 0 2.5 8.333 2.5-8.333 2.5 8.333 2.5-8.333" stroke="#29B74D" stroke-width="2.5" stroke-linecap="round" stroke-linejoin="round"/></svg>
